app/img/icons/review-item-white.svg

<svg width="28" height="56" viewBox="0 0 28 56" fill="none" xmlns="http://www.w3.org/2000/svg">
<path d="M1.1995 50.8648C1.85988 51.0389 2.43221 51.2564 3.04856 51.474C3.97309 51.8221 4.85359 52.1702 5.64604 52.5618C6.43849 52.9534 7.23095 53.345 7.89132 53.8672C8.24353 54.1282 8.5517 54.3893 8.81585 54.6939C9.08 54.9985 9.34415 55.3466 9.47623 55.7382C8.63975 55.9122 7.93535 55.9557 7.27497 55.9557C6.6146 55.9557 5.99824 55.8687 5.42591 55.7382C4.28126 55.5206 3.31271 55.0855 2.52025 54.6069C1.7278 54.1282 1.06742 53.5191 0.627172 52.8664C0.363022 52.4313 0.142895 51.9961 0.0108185 51.5175C-0.0332069 51.3 0.0988693 51.0824 0.318995 50.9519C0.583145 50.8213 0.891323 50.7778 1.1995 50.8648Z" fill="white"/>
<path d="M1.15526 50.0816C1.77161 49.8205 2.25589 49.5159 2.69614 49.1678C3.40054 48.6022 3.92884 47.9495 4.28105 47.2533C4.63325 46.5571 4.85337 45.8609 4.94142 45.1212C4.98545 44.7296 4.98545 44.3815 4.94142 43.9899C4.8974 43.5983 4.80935 43.2067 4.63325 42.7715C4.28104 43.0326 4.01689 43.2937 3.75274 43.5983C3.48859 43.8593 3.22444 44.1639 3.00431 44.425C2.52004 44.9907 2.07979 45.5998 1.63954 46.209C1.19928 46.8182 0.803057 47.4708 0.494881 48.167C0.318781 48.6022 0.0986557 49.0373 0.0106049 49.5159C-0.0334206 49.7335 0.0546303 49.951 0.318781 50.0816C0.538906 50.2121 0.891108 50.2121 1.15526 50.0816Z" fill="white"/>
<path d="M7.5389 49.516C8.19928 49.4725 8.81563 49.516 9.43199 49.516C10.4005 49.5596 11.3251 49.6466 12.2056 49.7771C13.0861 49.9076 13.9226 50.0817 14.671 50.3428C15.0672 50.4733 15.4194 50.6474 15.7716 50.8649C16.1238 51.0825 16.432 51.3 16.6961 51.6916C15.9917 52.0833 15.3314 52.3008 14.715 52.4749C14.0987 52.6489 13.4823 52.7794 12.954 52.823C11.8093 52.9535 10.8408 52.823 9.91626 52.6054C9.03576 52.3878 8.24331 52.0397 7.62695 51.5176C7.23073 51.213 6.87853 50.8649 6.61438 50.4733C6.4823 50.2993 6.57035 50.0382 6.74645 49.8641C6.92255 49.6466 7.23073 49.516 7.5389 49.516Z" fill="white"/>
<path d="M7.23029 48.7763C7.71457 48.3412 8.06677 47.906 8.37494 47.4709C8.85922 46.7312 9.1674 45.948 9.29947 45.2083C9.43155 44.4686 9.43155 43.7289 9.29947 42.9892C9.21142 42.6411 9.12337 42.2495 8.94727 41.9014C8.77117 41.5533 8.59507 41.2052 8.33092 40.8571C8.06677 41.2052 7.89067 41.5533 7.71457 41.9014C7.53847 42.2495 7.36237 42.5976 7.23029 42.9457C6.92212 43.6419 6.70199 44.3381 6.48186 45.0342C6.26174 45.7304 6.08563 46.4701 5.99758 47.2098C5.95356 47.6885 5.90953 48.1236 5.95356 48.6457C5.95356 48.8633 6.12966 49.0374 6.39381 49.0809C6.74601 49.0809 7.05419 48.9503 7.23029 48.7763Z" fill="white"/>
<path d="M13.1305 46.296C13.7469 46.0784 14.3192 45.9044 14.8915 45.7738C15.8161 45.5128 16.6966 45.3822 17.5331 45.2517C18.3695 45.1212 19.206 45.0777 19.9985 45.1647C20.3947 45.2082 20.7909 45.2517 21.1871 45.3387C21.5834 45.4258 21.9356 45.5998 22.2878 45.8609C21.7154 46.383 21.1871 46.7746 20.6588 47.1227C20.1305 47.4708 19.6022 47.6884 19.118 47.9059C18.1054 48.2975 17.1368 48.4716 16.2563 48.5151C15.3758 48.5586 14.5393 48.4281 13.7909 48.167C13.3507 47.993 12.9104 47.7754 12.5582 47.4708C12.3821 47.3403 12.3821 47.1227 12.5142 46.8616C12.6463 46.6006 12.8664 46.383 13.1305 46.296Z" fill="white"/>
<path d="M12.6461 45.6868C12.9543 45.1647 13.2185 44.6425 13.3505 44.1204C13.6147 43.2936 13.6587 42.4669 13.6147 41.7272C13.5267 40.9875 13.3506 40.2913 12.9983 39.6386C12.8222 39.3341 12.6461 38.986 12.382 38.7249C12.1619 38.4203 11.8537 38.1592 11.5015 37.8982C11.3254 38.2898 11.2373 38.6814 11.1493 39.073C11.0612 39.4646 11.0172 39.8127 10.9732 40.2043C10.8851 40.944 10.8411 41.6837 10.8411 42.3799C10.8411 43.1196 10.8851 43.8593 11.0172 44.5555C11.1053 44.9906 11.1933 45.4692 11.3694 45.9044C11.4575 46.0784 11.6776 46.209 11.9417 46.1654C12.2499 46.1219 12.5141 45.9479 12.6461 45.6868Z" fill="white"/>
<path d="M17.5764 41.6403C18.1047 41.2922 18.589 40.9876 19.1173 40.683C19.9098 40.2044 20.7022 39.8563 21.4947 39.5082C22.2871 39.2036 23.0355 38.9426 23.828 38.812C24.1802 38.725 24.5324 38.6815 24.9286 38.6815C25.3249 38.6815 25.7211 38.725 26.1173 38.899C25.7211 39.5082 25.3249 40.0304 24.8846 40.4655C24.4884 40.9006 24.0481 41.2487 23.6079 41.5968C22.7714 42.206 21.9349 42.6411 21.0984 42.9022C20.262 43.1632 19.4695 43.2938 18.6771 43.2067C18.1928 43.1632 17.7525 43.0762 17.3123 42.8586C17.1362 42.7716 17.0481 42.5541 17.0921 42.293C17.1802 42.0319 17.3563 41.7708 17.5764 41.6403Z" fill="white"/>
<path d="M16.9596 41.2052C17.1357 40.596 17.1798 40.0738 17.2238 39.5082C17.2238 38.638 17.0917 37.8982 16.8276 37.1585C16.5634 36.4623 16.2112 35.8532 15.7269 35.331C15.5068 35.07 15.2427 34.8089 14.9345 34.5913C14.6263 34.3738 14.3181 34.1562 13.9219 34.0257C13.8779 34.4608 13.8779 34.8524 13.8779 35.244C13.8779 35.6356 13.9219 35.9837 13.9659 36.3753C14.054 37.115 14.2301 37.8112 14.4062 38.5074C14.5823 39.2036 14.8464 39.8998 15.1546 40.5525C15.3747 40.9441 15.5949 41.3357 15.859 41.7273C15.9911 41.9014 16.2112 41.9449 16.4754 41.8143C16.6955 41.6838 16.9156 41.4662 16.9596 41.2052Z" fill="white"/>
<path d="M20.5706 35.9402C20.9668 35.4615 21.363 35.0699 21.7592 34.6348C22.4196 33.9821 23.036 33.46 23.6964 32.9378C24.3567 32.4592 25.0171 32.0241 25.7215 31.7195C26.0737 31.5455 26.4259 31.4149 26.7781 31.3279C27.1743 31.2844 27.5706 31.2409 27.9668 31.3279C27.7467 32.0241 27.4825 32.5897 27.2184 33.0684C26.9542 33.5905 26.646 34.0256 26.2938 34.4173C25.6335 35.2005 24.9731 35.8096 24.2247 36.2448C23.5203 36.6799 22.7718 36.9845 22.0234 37.115C21.5831 37.202 21.0989 37.202 20.6586 37.1585C20.4385 37.115 20.3064 36.9409 20.3064 36.6799C20.3064 36.4623 20.3945 36.1577 20.5706 35.9402Z" fill="white"/>
<path d="M19.9106 35.7226C19.9106 35.1134 19.8226 34.5912 19.6905 34.0691C19.4704 33.2424 19.1622 32.5462 18.722 31.937C18.2817 31.3278 17.7974 30.8492 17.2251 30.4576C16.9169 30.24 16.6087 30.1095 16.3006 29.9355C15.9484 29.8049 15.5962 29.6744 15.1999 29.6309C15.244 30.066 15.376 30.4576 15.4641 30.8057C15.5962 31.1538 15.6842 31.5454 15.8603 31.85C16.1245 32.5462 16.4767 33.1553 16.8289 33.7645C17.1811 34.3737 17.5773 34.9829 18.0616 35.505C18.3698 35.8531 18.6779 36.1577 19.0301 36.4188C19.2062 36.5493 19.4264 36.5058 19.6025 36.3317C19.7786 36.2447 19.9106 35.9836 19.9106 35.7226Z" fill="white"/>
<path d="M22.023 29.7179C22.2871 29.1522 22.5513 28.6736 22.8154 28.195C23.2557 27.4553 23.7399 26.7591 24.2242 26.1499C24.7085 25.5407 25.2368 24.9751 25.8532 24.4965C26.1613 24.2789 26.4695 24.0613 26.7777 23.8873C27.1299 23.7132 27.4381 23.5827 27.8783 23.5392C27.8343 24.2354 27.7462 24.8445 27.5701 25.3667C27.4381 25.8888 27.262 26.411 27.0418 26.8461C26.6456 27.8034 26.1613 28.5431 25.589 29.1087C25.0167 29.7179 24.4003 30.153 23.7399 30.4576C23.3437 30.6316 22.9035 30.7622 22.4632 30.8492C22.2871 30.8927 22.067 30.7187 22.023 30.5011C21.8909 30.24 21.8909 29.979 22.023 29.7179Z" fill="white"/>
<path d="M21.3186 29.6744C21.1865 29.1088 20.9664 28.6302 20.7023 28.1515C20.306 27.4118 19.8218 26.8462 19.2934 26.3675C18.7651 25.8889 18.1488 25.5408 17.4884 25.2797C17.1802 25.1492 16.828 25.0622 16.4758 25.0187C16.1236 24.9751 15.7714 24.9316 15.3312 25.0187C15.5073 25.4103 15.6834 25.7584 15.8595 26.1065C16.0356 26.411 16.2557 26.7591 16.4758 27.0202C16.9161 27.6294 17.3563 28.1515 17.8406 28.6301C18.3249 29.1088 18.8532 29.5874 19.4255 29.979C19.7777 30.2401 20.174 30.4577 20.5702 30.5882C20.7463 30.6752 20.9664 30.5882 21.0985 30.3706C21.3186 30.1966 21.3626 29.892 21.3186 29.6744Z" fill="white"/>
<path d="M21.8469 23.3216C21.9789 22.756 22.111 22.2338 22.2431 21.7117C22.4632 20.885 22.7714 20.1452 23.0796 19.4491C23.3877 18.7529 23.784 18.1002 24.2242 17.491C24.4443 17.1864 24.7085 16.9254 24.9726 16.7078C25.2368 16.4902 25.545 16.2727 25.9412 16.1421C26.0733 16.8383 26.1173 17.404 26.1173 17.9696C26.1173 18.5353 26.0733 19.0139 25.9852 19.4926C25.8091 20.4498 25.501 21.2766 25.1047 21.9728C24.7085 22.6689 24.2242 23.2781 23.6959 23.7132C23.3437 23.9743 22.9915 24.2354 22.5513 24.3659C22.3752 24.4529 22.155 24.3224 22.023 24.1484C21.8469 23.8873 21.8028 23.5827 21.8469 23.3216Z" fill="white"/>
<path d="M21.1425 23.4522C20.8784 22.93 20.5262 22.5384 20.218 22.1468C19.6897 21.5377 19.0734 21.1025 18.413 20.798C17.7966 20.4934 17.1363 20.2758 16.4759 20.2323C16.1237 20.1888 15.8155 20.1888 15.4633 20.2323C15.1111 20.2758 14.7589 20.3193 14.4067 20.4934C14.6708 20.8415 14.935 21.1025 15.1991 21.3636C15.4633 21.6247 15.7274 21.8858 15.9916 22.1033C16.5199 22.5384 17.0922 22.9736 17.7086 23.3217C18.2809 23.6697 18.8973 24.0178 19.5576 24.2354C19.9539 24.3659 20.3501 24.4965 20.7903 24.54C20.9664 24.5835 21.1425 24.453 21.2306 24.2354C21.3186 23.9743 21.2746 23.6697 21.1425 23.4522Z" fill="white"/>
<path d="M20.0868 17.1865C20.0428 16.6208 20.0428 16.0552 20.0428 15.5765C20.0428 14.7498 20.1308 13.9666 20.2629 13.2269C20.395 12.4872 20.5711 11.7475 20.8352 11.0948C20.9673 10.7467 21.1434 10.4421 21.3195 10.1375C21.5396 9.83294 21.7597 9.57187 22.0679 9.35431C22.3761 9.96348 22.5522 10.4856 22.6843 11.0513C22.8163 11.5734 22.9044 12.0956 22.9484 12.5307C23.0365 13.488 22.9484 14.3147 22.7283 15.0544C22.5522 15.7941 22.244 16.4903 21.8038 17.0559C21.5396 17.404 21.2314 17.7086 20.8792 17.9697C20.7031 18.1002 20.527 18.0567 20.3509 17.8827C20.2189 17.7086 20.0868 17.4476 20.0868 17.1865Z" fill="white"/>
<path d="M19.4262 17.4475C19.03 17.0559 18.6337 16.7078 18.1935 16.4468C17.5331 16.0117 16.8287 15.7506 16.1683 15.62C15.5079 15.4895 14.8035 15.446 14.1872 15.533C13.879 15.5765 13.5268 15.6636 13.2186 15.7941C12.9105 15.9246 12.6023 16.0552 12.2501 16.3162C12.5583 16.5773 12.8664 16.7514 13.2186 16.9689C13.5268 17.143 13.835 17.317 14.1432 17.4475C14.7595 17.7521 15.4199 17.9697 16.0363 18.1873C16.6966 18.3613 17.357 18.5354 18.0174 18.5789C18.4136 18.6224 18.8539 18.6224 19.2941 18.5789C19.4702 18.5354 19.6023 18.4048 19.6463 18.1437C19.6903 17.9262 19.6023 17.6651 19.4262 17.4475Z" fill="white"/>
<path d="M16.7406 11.704C16.5645 11.1818 16.4324 10.6597 16.3003 10.1811C16.0802 9.39785 15.9481 8.61463 15.9041 7.87493C15.8161 7.13523 15.8161 6.43903 15.8601 5.74284C15.9041 5.39474 15.9481 5.04665 16.0802 4.74206C16.1683 4.39397 16.3003 4.08938 16.5645 3.7848C17.0048 4.26343 17.357 4.74206 17.6211 5.2207C17.8853 5.69933 18.1054 6.13445 18.2815 6.56957C18.5897 7.43981 18.7658 8.26654 18.7658 9.00624C18.7658 9.78946 18.6777 10.4857 18.4136 11.0948C18.2375 11.4864 18.0614 11.8345 17.7972 12.1826C17.6651 12.3132 17.489 12.3567 17.2689 12.2261C17.0048 12.1826 16.8287 11.9651 16.7406 11.704Z" fill="white"/>
<path d="M16.2128 12.1391C15.7285 11.8345 15.2883 11.6604 14.804 11.5299C14.0556 11.3124 13.3512 11.2253 12.6908 11.2688C12.0304 11.3124 11.37 11.4429 10.7977 11.7475C10.4895 11.878 10.2254 12.0521 9.96122 12.2261C9.69707 12.4437 9.43291 12.6612 9.21279 12.9658C9.56499 13.1399 9.91719 13.2269 10.2694 13.3139C10.6216 13.4009 10.9298 13.488 11.282 13.5315C11.9423 13.6185 12.6027 13.7055 13.2631 13.7055C13.9235 13.7055 14.5839 13.7055 15.2442 13.575C15.6405 13.488 16.0367 13.4009 16.4329 13.2269C16.609 13.1399 16.6971 12.9658 16.653 12.7483C16.609 12.4872 16.4329 12.2696 16.2128 12.1391Z" fill="white"/>
<path d="M12.0293 7.35354C11.7211 6.91841 11.4569 6.48329 11.1928 6.04817C10.7966 5.35198 10.4444 4.65579 10.1362 4.00311C9.87202 3.35043 9.60787 2.65423 9.4758 2.00155C9.43177 1.65346 9.38775 1.34887 9.38775 1.00078C9.38775 0.652681 9.43177 0.304584 9.56385 0C10.1362 0.348096 10.5764 0.696193 10.9727 1.04429C11.3689 1.39239 11.6771 1.78399 11.9852 2.13209C12.5576 2.87179 12.9098 3.6115 13.1299 4.30769C13.35 5.00388 13.4381 5.70008 13.394 6.39627C13.35 6.78788 13.262 7.17949 13.1299 7.5711C13.0418 7.74514 12.8657 7.83217 12.6456 7.78866C12.4255 7.70163 12.2054 7.52758 12.0293 7.35354Z" fill="white"/>
<path d="M11.6771 7.87485C11.1488 7.74431 10.6646 7.7008 10.1803 7.65729C9.43185 7.65729 8.72745 7.78782 8.1111 8.00538C7.49475 8.22294 6.96644 8.57104 6.48216 8.96265C6.26204 9.18021 6.04191 9.39777 5.82179 9.65884C5.64569 9.91991 5.46959 10.2245 5.33751 10.5291C5.73374 10.5726 6.08594 10.5726 6.39411 10.5291C6.74632 10.5291 7.05449 10.4856 7.40669 10.4421C8.06707 10.355 8.68342 10.2245 9.29977 10.0505C9.91613 9.8764 10.5325 9.65884 11.1048 9.39777C11.457 9.22372 11.8092 9.00616 12.1174 8.7886C12.2495 8.65806 12.2935 8.48402 12.2054 8.26646C12.1174 8.09241 11.8973 7.91836 11.6771 7.87485Z" fill="white"/>
<path d="M3.40039 4.82915C3.04819 4.69862 2.74001 4.56808 2.38781 4.39403C2.03561 4.21998 1.68341 4.08945 1.33121 3.87189C1.72743 3.69784 2.07963 3.61082 2.47586 3.52379C2.87209 3.48028 3.22429 3.43677 3.62051 3.43677C4.36894 3.43677 5.16139 3.5673 5.8658 3.74135C6.61423 3.95891 7.31863 4.2635 7.93498 4.6551C8.33121 4.91618 8.72743 5.17725 9.03561 5.52535C9.16768 5.65588 9.25573 5.87344 9.16768 6.00398C9.07963 6.13451 8.90353 6.22154 8.72743 6.17803C8.24315 6.13451 7.8029 6.04749 7.36265 5.96047C6.65825 5.82993 5.99787 5.65588 5.29347 5.43832C4.72114 5.30779 4.06077 5.09023 3.40039 4.82915Z" fill="white"/>
</svg>

<svg width="28" height="56" fill="none" xmlns="http://www.w3.org/2000/svg"><path d="M1.2 50.865c.66.174 1.232.391 1.849.609.924.348 1.805.696 2.597 1.088.792.391 1.585.783 2.245 1.305.353.261.66.522.925.827.264.304.528.653.66 1.044a10.45 10.45 0 01-2.201.218c-.66 0-1.277-.087-1.85-.218a8.778 8.778 0 01-2.905-1.131c-.792-.479-1.453-1.088-1.893-1.74-.264-.436-.484-.87-.616-1.35-.044-.217.088-.435.308-.565.264-.13.572-.174.88-.087zm-.045-.783a6.515 6.515 0 001.541-.914c.705-.566 1.233-1.218 1.585-1.915a6.31 6.31 0 00.66-2.132 4.861 4.861 0 00-.308-2.35 5.301 5.301 0 00-.88.827c-.264.261-.529.566-.749.827-.484.566-.924 1.175-1.364 1.784-.44.61-.837 1.262-1.145 1.958-.176.435-.396.87-.484 1.349-.044.218.044.435.308.566.22.13.572.13.836 0zm6.384-.566c.66-.044 1.277 0 1.893 0 .968.044 1.893.13 2.774.261.88.13 1.717.305 2.465.566.396.13.748.304 1.1.522.353.218.661.435.925.827-.704.391-1.365.609-1.981.783-.616.174-1.233.304-1.761.348-1.145.13-2.113 0-3.038-.218-.88-.217-1.673-.565-2.29-1.087a4.567 4.567 0 01-1.012-1.045c-.132-.174-.044-.435.132-.609.177-.217.485-.348.793-.348zm-.309-.74c.485-.435.837-.87 1.145-1.305.484-.74.792-1.523.924-2.263a6.22 6.22 0 000-2.219c-.088-.348-.176-.74-.352-1.088-.176-.348-.352-.696-.616-1.044-.264.348-.44.696-.616 1.044-.177.348-.353.697-.485 1.045-.308.696-.528 1.392-.748 2.088-.22.696-.396 1.436-.484 2.176-.044.478-.088.914-.044 1.436 0 .217.176.391.44.435.352 0 .66-.13.836-.305zm5.9-2.48a15.87 15.87 0 011.761-.522c.925-.261 1.806-.392 2.642-.522.836-.13 1.673-.174 2.465-.087.397.043.793.087 1.19.174.395.087.748.26 1.1.522-.573.522-1.1.914-1.63 1.262-.527.348-1.056.565-1.54.783a9.152 9.152 0 01-2.862.61 6.512 6.512 0 01-2.465-.349c-.44-.174-.88-.392-1.233-.696-.176-.13-.176-.348-.044-.61.132-.26.352-.478.617-.565zm-.484-.609c.308-.522.572-1.044.704-1.567.265-.826.309-1.653.265-2.393-.088-.74-.264-1.436-.617-2.088-.176-.305-.352-.653-.616-.914-.22-.305-.528-.566-.88-.827-.177.392-.265.783-.353 1.175-.088.392-.132.74-.176 1.131a18.61 18.61 0 00-.132 2.176c0 .74.044 1.48.176 2.175.088.436.176.914.352 1.35a.535.535 0 00.573.26.918.918 0 00.704-.478zm4.93-4.047a29.691 29.691 0 011.541-.957c.793-.479 1.585-.827 2.378-1.175.792-.304 1.54-.565 2.333-.696.352-.087.704-.13 1.1-.13.397 0 .793.043 1.19.217-.397.61-.793 1.131-1.233 1.566-.397.436-.837.784-1.277 1.132-.837.609-1.673 1.044-2.51 1.305-.836.261-1.628.392-2.42.305-.485-.044-.925-.13-1.366-.348-.176-.087-.264-.305-.22-.566.088-.261.264-.522.484-.653zm-.616-.435c.176-.609.22-1.131.264-1.697 0-.87-.132-1.61-.396-2.35-.265-.696-.617-1.305-1.101-1.827a4.28 4.28 0 00-.793-.74c-.308-.217-.616-.435-1.012-.565-.044.435-.044.826-.044 1.218s.044.74.088 1.131c.088.74.264 1.436.44 2.132.176.697.44 1.393.749 2.046.22.391.44.783.704 1.174.132.174.352.218.616.087.22-.13.44-.348.485-.609zm3.61-5.265c.397-.478.793-.87 1.19-1.305a22.527 22.527 0 011.936-1.697c.66-.479 1.321-.914 2.025-1.219a5.202 5.202 0 011.057-.391c.396-.044.793-.087 1.189 0a9.445 9.445 0 01-.749 1.74 6.116 6.116 0 01-.924 1.35c-.66.782-1.32 1.392-2.07 1.827-.704.435-1.452.74-2.2.87a4.79 4.79 0 01-1.365.043c-.22-.043-.353-.217-.353-.478 0-.218.088-.522.265-.74zm-.66-.217a6.49 6.49 0 00-.22-1.654c-.22-.827-.528-1.523-.968-2.132a6.008 6.008 0 00-1.497-1.48c-.308-.217-.616-.348-.924-.521-.353-.131-.705-.262-1.101-.305.044.435.176.827.264 1.175.132.348.22.74.396 1.044.265.696.617 1.305.969 1.914.352.61.748 1.219 1.233 1.741.308.348.616.653.968.914.176.13.396.087.572-.087.177-.087.309-.348.309-.61zm2.113-6.005c.264-.566.528-1.044.792-1.523.44-.74.925-1.436 1.41-2.045.483-.61 1.012-1.175 1.628-1.653.308-.218.616-.436.925-.61.352-.174.66-.304 1.1-.348-.044.696-.132 1.305-.308 1.828a7.34 7.34 0 01-.528 1.48c-.396.956-.88 1.696-1.453 2.262a5.908 5.908 0 01-1.85 1.349 6.203 6.203 0 01-1.276.391c-.176.044-.396-.13-.44-.348a.823.823 0 010-.783zm-.704-.044c-.133-.565-.353-1.044-.617-1.523a6.529 6.529 0 00-1.409-1.784c-.528-.478-1.144-.826-1.805-1.087a3.845 3.845 0 00-1.012-.261c-.352-.044-.705-.087-1.145 0 .176.391.352.74.529 1.088.176.304.396.652.616.913.44.61.88 1.131 1.365 1.61.484.479 1.012.957 1.584 1.349.353.261.749.479 1.145.61.176.086.396 0 .529-.218.22-.174.264-.479.22-.697zm.528-6.352a87.16 87.16 0 01.396-1.61c.22-.827.528-1.567.837-2.263.308-.696.704-1.349 1.144-1.958a4.27 4.27 0 01.749-.783c.264-.218.572-.435.968-.566.132.696.176 1.262.176 1.828a8.18 8.18 0 01-.132 1.523 7.868 7.868 0 01-.88 2.48c-.396.696-.88 1.305-1.41 1.74-.351.261-.704.522-1.144.653-.176.087-.396-.044-.528-.218a1.145 1.145 0 01-.176-.826zm-.705.13c-.264-.522-.616-.914-.924-1.305a5.296 5.296 0 00-1.805-1.349c-.616-.305-1.277-.522-1.937-.566a3.945 3.945 0 00-1.013 0c-.352.044-.704.087-1.056.261.264.349.528.61.792.87.264.262.528.523.793.74.528.435 1.1.87 1.717 1.219.572.348 1.188.696 1.849.913.396.13.792.262 1.232.305.176.044.352-.087.44-.305a.968.968 0 00-.088-.783zm-1.055-6.266c-.044-.565-.044-1.13-.044-1.61 0-.826.088-1.61.22-2.35.132-.739.308-1.479.572-2.131.132-.348.308-.653.485-.958.22-.304.44-.565.748-.783.308.61.484 1.132.616 1.697.132.522.22 1.045.264 1.48.088.957 0 1.784-.22 2.523-.176.74-.484 1.436-.924 2.002a4.576 4.576 0 01-.925.914c-.176.13-.352.087-.528-.087-.132-.174-.264-.435-.264-.697zm-.661.262c-.396-.392-.792-.74-1.232-1.001a5.702 5.702 0 00-2.026-.827c-.66-.13-1.364-.174-1.98-.087-.309.043-.661.13-.97.261-.307.13-.616.261-.968.522.308.261.616.435.969.653.308.174.616.348.924.479.616.304 1.277.522 1.893.74.66.173 1.321.347 1.981.39a6.19 6.19 0 001.277 0c.176-.043.308-.173.352-.434.044-.218-.044-.479-.22-.696zm-2.686-5.744c-.175-.522-.308-1.044-.44-1.523a11.008 11.008 0 01-.396-2.306 11.587 11.587 0 01-.044-2.132c.044-.348.088-.696.22-1 .088-.349.22-.654.485-.958.44.478.792.957 1.056 1.436.264.478.484.913.66 1.349.309.87.485 1.697.485 2.436 0 .783-.088 1.48-.352 2.089-.177.391-.353.74-.617 1.088-.132.13-.308.174-.528.043-.264-.043-.44-.26-.528-.522zm-.527.436a4.939 4.939 0 00-1.409-.61c-.748-.218-1.453-.305-2.113-.261-.66.043-1.321.174-1.893.479-.309.13-.573.304-.837.478-.264.218-.528.435-.748.74.352.174.704.26 1.056.348.353.087.66.174 1.013.217.66.087 1.32.175 1.981.175.66 0 1.32 0 1.981-.131.396-.087.793-.174 1.189-.348.176-.087.264-.261.22-.479a.9.9 0 00-.44-.609zM12.03 7.354c-.309-.436-.573-.87-.837-1.306a30.333 30.333 0 01-1.057-2.045c-.264-.653-.528-1.349-.66-2.001-.044-.349-.088-.653-.088-1.001 0-.348.044-.696.176-1.001a9.762 9.762 0 011.409 1.044c.396.348.704.74 1.012 1.088a6.94 6.94 0 011.145 2.176c.22.696.308 1.392.264 2.088a5.638 5.638 0 01-.264 1.175c-.088.174-.264.261-.484.218-.22-.087-.44-.261-.617-.435zm-.353.521c-.528-.13-1.012-.174-1.497-.218-.748 0-1.453.13-2.069.348-.616.218-1.145.566-1.629.958-.22.217-.44.435-.66.696a5.555 5.555 0 00-.484.87c.396.044.748.044 1.056 0 .352 0 .66-.043 1.013-.087.66-.087 1.276-.217 1.893-.392a12.708 12.708 0 001.805-.652 7.773 7.773 0 001.012-.61c.132-.13.176-.304.088-.522a.819.819 0 00-.528-.391zM3.4 4.83c-.352-.131-.66-.262-1.012-.436s-.705-.305-1.057-.522c.396-.174.749-.261 1.145-.348.396-.044.748-.087 1.145-.087.748 0 1.54.13 2.245.304a8.061 8.061 0 012.069.914c.396.261.792.522 1.1.87.133.13.22.348.133.479a.42.42 0 01-.44.174c-.485-.043-.925-.13-1.365-.218a18.007 18.007 0 01-2.07-.522A13.537 13.537 0 013.4 4.83z" fill="#fff"/></svg>
